src/icons/solid/communication/phone-off.svg

<svg width="24" height="24" viewBox="0 0 24 24" fill="none" xmlns="http://www.w3.org/2000/svg">
<g clip-path="url(#clip0_4191_662)">
<path d="M21.386 1.76286C21.7562 1.40953 22.3548 1.40953 22.7249 1.76286V1.77164C23.0948 2.12493 23.0948 2.69571 22.7249 3.04899L2.62237 22.2375C2.43262 22.4093 2.19512 22.5002 1.94854 22.5002C1.70192 22.5001 1.46443 22.4186 1.27471 22.2375C0.904715 21.8843 0.904981 21.3135 1.27471 20.9601L5.98272 16.466C4.54017 14.8082 3.47714 13.1323 2.8792 11.4836C1.90165 8.81104 2.35716 6.0026 4.05596 4.15446C4.28375 3.91891 4.57788 3.6827 4.8626 3.45621L5.29913 3.09391C5.30546 3.08855 5.31227 3.08369 5.31866 3.07828C5.64737 2.80022 6.05148 2.45835 6.65655 2.35172C8.21304 2.0709 9.15292 3.46574 9.76983 4.38981L9.86456 4.52555C10.4815 5.44054 11.2599 6.60036 10.9183 7.92301C10.7286 8.6382 10.1974 9.04595 9.76104 9.38102L9.76006 9.382C9.72215 9.41366 9.68372 9.44243 9.64581 9.47184C9.60793 9.50121 9.5704 9.53104 9.53253 9.56266C9.4539 9.62617 9.37129 9.68639 9.28741 9.74723C9.23971 9.78182 9.19102 9.81659 9.14288 9.8527C8.8772 10.0429 8.57389 10.2604 8.5169 10.4416C8.32711 11.0847 8.87736 11.9088 9.08624 12.217C9.26656 12.4797 9.4472 12.7341 9.63702 12.9787L21.386 1.76286Z" fill="#3C3B44"/>
<path d="M16.47 14.174C17.9314 13.9594 18.912 14.7867 19.6399 15.4006L19.6683 15.425L20.1712 15.8322H20.1624C20.9216 16.4301 21.9651 17.2545 21.8704 18.4591C21.8139 19.2506 21.2246 19.7392 20.7982 20.092L20.7884 20.0988L20.7034 20.172C20.6577 20.2125 20.612 20.2521 20.5667 20.2912C20.4803 20.3657 20.3947 20.4386 20.3138 20.5158C20.2891 20.5377 20.2644 20.56 20.2396 20.5822C19.9874 20.8071 19.7245 21.0415 19.431 21.2228C18.3681 21.884 17.106 22.2189 15.6732 22.2189H15.3978C13.8318 22.1736 12.6072 21.6579 11.6107 21.1506C10.5952 20.6342 9.62721 19.9817 8.64971 19.1574C8.50742 19.0306 8.4125 18.8583 8.41241 18.6681C8.40292 18.4869 8.47903 18.305 8.62139 18.1691L11.3353 15.6144C11.5915 15.3789 11.9812 15.3614 12.2659 15.5607C12.8257 15.9501 13.2435 16.1222 13.5472 16.0588C13.8982 15.9862 14.1452 15.7412 14.5247 15.3517C14.9707 14.8897 15.5307 14.3099 16.47 14.174Z" fill="#3C3B44"/>
</g>
<defs>
<clipPath id="clip0_4191_662">
<rect width="24" height="24" fill="white"/>
</clipPath>
</defs>
</svg>

<svg xmlns="http://www.w3.org/2000/svg" width="24" height="24" fill="none" viewBox="0 0 24 24"><g fill="currentColor" clip-path="url(#a)"><path d="M21.386 1.763a.98.98 0 0 1 1.339 0v.009c.37.353.37.924 0 1.277L2.622 22.238a1 1 0 0 1-1.347 0 .874.874 0 0 1 0-1.278l4.708-4.494c-1.443-1.658-2.506-3.334-3.104-4.982-.977-2.673-.522-5.481 1.177-7.33.228-.235.522-.471.807-.698l.436-.362.02-.016c.328-.278.732-.62 1.338-.726C8.213 2.07 9.153 3.466 9.77 4.39l.095.136c.617.915 1.395 2.074 1.053 3.397-.19.715-.72 1.123-1.157 1.458v.001l-.115.09q-.057.044-.113.09a6 6 0 0 1-.246.185l-.144.106c-.266.19-.57.407-.626.589-.19.643.36 1.467.57 1.775.18.263.36.517.55.762zM16.47 14.174c1.461-.215 2.442.613 3.17 1.227l.028.024.503.407h-.009c.76.598 1.803 1.422 1.708 2.627-.056.792-.645 1.28-1.072 1.633l-.01.007-.085.073-.136.12q-.131.11-.253.224l-.074.066c-.253.225-.515.46-.809.64-1.063.662-2.325.997-3.758.997h-.275c-1.566-.045-2.79-.561-3.787-1.068-1.016-.517-1.984-1.17-2.961-1.994a.663.663 0 0 1-.029-.988l2.714-2.555a.746.746 0 0 1 .93-.053c.56.39.978.561 1.282.498.351-.073.598-.318.978-.707.446-.462 1.006-1.042 1.945-1.178"/></g><defs><clipPath id="a"><path fill="currentColor" d="M0 0h24v24H0z"/></clipPath></defs></svg>
